static/fa/svgs/solid/ticket.svg

<svg xmlns="http://www.w3.org/2000/svg" viewBox="0 0 576 512"><!--! Font Awesome Free 6.1.1 by @fontawesome - https://fontawesome.com License - https://fontawesome.com/license/free (Icons: CC BY 4.0, Fonts: SIL OFL 1.1, Code: MIT License) Copyright 2022 Fonticons, Inc.--><path d="M128 160h320v192H128V160zm384-96c35.3 0 64 28.65 64 64v80c-26.5 0-48 21.5-48 48s21.5 48 48 48v80c0 35.3-28.7 64-64 64H64c-35.35 0-64-28.7-64-64v-80c26.51 0 48-21.5 48-48s-21.49-48-48-48v-80c0-35.35 28.65-64 64-64h448zM96 352c0 17.7 14.3 32 32 32h320c17.7 0 32-14.3 32-32V160c0-17.7-14.3-32-32-32H128c-17.7 0-32 14.3-32 32v192z"/></svg>

<svg xmlns="http://www.w3.org/2000/svg" viewBox="0 0 576 512"><!--! Font Awesome Free 6.1.1 by @fontawesome - https://fontawesome.com License - https://fontawesome.com/license/free (Icons: CC BY 4.0, Fonts: SIL OFL 1.1, Code: MIT License) Copyright 2022 Fonticons, Inc. --><path d="M128 160H448V352H128V160zM512 64C547.3 64 576 92.65 576 128V208C549.5 208 528 229.5 528 256C528 282.5 549.5 304 576 304V384C576 419.3 547.3 448 512 448H64C28.65 448 0 419.3 0 384V304C26.51 304 48 282.5 48 256C48 229.5 26.51 208 0 208V128C0 92.65 28.65 64 64 64H512zM96 352C96 369.7 110.3 384 128 384H448C465.7 384 480 369.7 480 352V160C480 142.3 465.7 128 448 128H128C110.3 128 96 142.3 96 160V352z"/></svg>
